!!!COM:	Josquin des Prez
!!!CDT:	~1450-1521/08/27
!!!OPR:	Missa Fortuna desperata
!!!ONM:	5
!!!OTL:	Agnus Dei
!!!AGN:	Mass; Agnus Dei
!!!SCT:	NJE 8.2
!!!SCA:	New Josquin Edition 8.2
!!!ONB: 	This mass was apparently conceived with only two Agnus Dei sections.
!!!voices: 4
!!!voices-OPR:	4
**kern	**kern	**kern	**kern
*staff4	*staff3	*staff2	*staff1
*Ivox	*Ivox	*Ivox	*Ivox
*I"Bassus	*I"Tenor	*I"Altus	*I"Superius
*I'B	*I'T	*I'A	*I'S
*>[A,B]	*>[A,B]	*>[A,B]	*>[A,B]
*>Agnus1[A]	*>Agnus1[A]	*>Agnus1[A]	*>Agnus1[A]
*>Agnus2[B]	*>Agnus2[B]	*>Agnus2[B]	*>Agnus2[B]
*clefF4	*clefGv2	*clefGv2	*clefG2
*>A	*>A	*>A	*>A
*k[]	*k[]	*k[]	*k[]
*M2/1	*M2/1	*M2/1	*M2/1
*met(C|)	*met(C|)	*met(C|)	*met(C|)
*rscale:1/4	*	*	*
=1-	=1-	=1-	=1-
!!section: Agnus Dei I
!!!OMD: Agnus Dei I
!LO:TX:Z=6:t=Canon&colon; Crescite et multiplicamini [(1) canon calls for fourfold augmentation; (2) original signatures indicate inversion]	!	!	!
!LO:N:vis=0	!	!	!
[y0C	0r	1.c	0r
.	.	4B\	.
.	.	4A/	.
=2-	=2	=2	=2
0C_yy	0r	2.c\	0r
.	.	4B\	.
.	.	[1G	.
=3-	=3	=3	=3
0C_yy	0r	2G/]	1.cc
.	.	1A	.
.	.	4G/	4b\
.	.	4F/	4a/
=4-	=4	=4	=4
0C]yy	0r	1E	2.cc\
.	.	.	4b\
.	.	[1c	[1g
=5	=5	=5	=5
!LO:N:vis=1	!	!	!
[y0C	1.c	2c\]	2g/]
.	.	4B\	1a
.	.	4A/	.
.	.	2.c\	.
.	4B\	.	4g/
.	4A/	4d\	4f/
=6-	=6	=6	=6
0C]yy	2.c\	2e\	0e
.	.	2.c\	.
.	4B\	.	.
.	1G	.	.
.	.	4B\	.
.	.	2c\	.
=7-	=7	=7	=7
!LO:N:vis=1	!	!	!
[y0D	1.F	2A/	1r
.	.	1d	.
.	.	.	[1f
.	4E/	2c\	.
.	4D/	.	.
=8-	=8	=8	=8
0D]yy	2.F/	1A	2f/]
.	.	.	4e/
.	4G/	.	4d/
.	1A	1F	2.f/
.	.	.	4e/
=9	=9	=9	=9
!LO:N:vis=0	!	!	!
[y0F	2r	1r	1.c
.	1A	.	.
.	.	[1f	.
.	4G/	.	[2d/
.	4F/	.	.
=10-	=10	=10	=10
0F_yy	2.A/	2f\]	2d/]
.	.	4e\	4c/
.	4B\	4d\	4B/
.	1c	2.f\	1A
.	.	4e\	.
=11-	=11	=11	=11
0F_yy	1r	1.c	2r
.	.	.	1A
.	[1f	.	.
.	.	[2d\	4G/
.	.	.	4F/
=12-	=12	=12	=12
0F]yy	2f\]	2d\]	2.A/
.	4e\	4c\	.
.	4d\	4B\	4B/
.	2.f\	[1A	[1c
.	4e\	.	.
=13	=13	=13	=13
!LO:N:vis=1	!	!	!
0r	1.c	2A/]	2c/]
.	.	4G/	2d/
.	.	4F/	.
.	.	2E/	2e/
.	[2d\	2D/	[2f/
=14-	=14	=14	=14
0ryy	2d\]	[0F	2f/]
.	4c\	.	4e/
.	4B\	.	4d/
.	1A	.	1c
=15-	=15	=15	=15
!LO:N:vis=1	!	!	!
[y0BB-	[0D	1F]	1r
.	.	[1G	[1d
=16-	=16	=16	=16
0BB-]yy	0D]	0G]	0d]
=17	=17	=17	=17
!LO:N:vis=0	!	!	!
[y0AA	1r	2.A/	1.c
.	.	4B\	.
.	1A	4c\	.
.	.	4d\	.
.	.	[2c\	4B/
.	.	.	4A/
=18-	=18	=18	=18
0AA_yy	1A	2c\]	2.c/
.	.	4B\	.
.	.	4A/	4d/
.	1A	1c	1e
=19-	=19	=19	=19
0AA_yy	1.c	2.A/	1r
.	.	4B\	.
.	.	4c\	1A
.	.	4d\	.
.	4B\	[2c\	.
.	4A/	.	.
=20-	=20	=20	=20
0AA]yy	2.c\	2c\]	1A
.	.	4B\	.
.	4d\	4A/	.
.	1e	2.c\	1A
.	.	4d\	.
=21	=21	=21	=21
!LO:N:vis=1	!	!	!
[y0AA	2.A/	1e	1.c
.	4B\	.	.
.	4c\	1A	.
.	4d\	.	.
.	[2c\	.	4B/
.	.	.	4A/
=22-	=22	=22	=22
0AA]yy	2c\]	1A	2.c/
.	4B\	.	.
.	4A/	.	4d/
.	2.c\	1A	1e
.	4d\	.	.
=23-	=23	=23	=23
!LO:N:vis=1	!	!	!
[y0AA	1e	1.c	2.A/
.	.	.	4B/
.	1A	.	4c/
.	.	.	4d/
.	.	4B\	[2c/
.	.	4A/	.
=24-	=24	=24	=24
0AA]yy	1e	2.c\	2c/]
.	.	.	4B/
.	.	4d\	4A/
.	2.A/	1e	2.c/
.	4B\	.	4d/
=25	=25	=25	=25
!LO:N:vis=0	!	!	!
[y0AA	4c\	1A	1e
.	4d\	.	.
.	1c	.	.
.	.	1e	1r
.	4B\	.	.
.	4A/	.	.
=26-	=26	=26	=26
0AA_yy	2c\	2.A/	0r
.	1F	.	.
.	.	4B\	.
.	.	4c\	.
.	.	4d\	.
.	4E/	[2c\	.
.	4D/	.	.
=27-	=27	=27	=27
0AA_yy	1E	2c\]	1r
.	.	4B\	.
.	.	4A/	.
.	[1A	2c\	[1c
.	.	[2F/	.
=28-	=28	=28	=28
0AA]yy	0A]	2F/]	0c]
.	.	4E/	.
.	.	4D/	.
.	.	1E	.
=29	=29	=29	=29
!LO:N:vis=0	!	!	!
[y0BB-i	1F	1D	1.d
.	[1B-	1G	.
.	.	.	2e/
=30-	=30	=30	=30
0BB-_yy	2B-\]	1F	[0f
.	2c\	.	.
.	1d	1D	.
=31-	=31	=31	=31
0BB-_yy	0D	0d	0f_
=32-	=32	=32	=32
0BB-]yy	0d	0B-	0f]
=33	=33	=33	=33
!LO:N:vis=0	!	!	!
[y0C	1.c	0G	2.e/
.	.	.	4f/
.	.	.	4g/
.	.	.	4a/
.	2B\	.	[2g/
=34-	=34	=34	=34
0C_yy	1A	1.c	2g/]
.	.	.	4f/
.	.	.	4e/
.	1G	.	1g
.	.	2B\	.
=35-	=35	=35	=35
0C_yy	2r	1A	1c
.	1c	.	.
.	.	1G	1g
.	4B\	.	.
.	4A/	.	.
=36-	=36	=36	=36
0C]yy	2G/	2r	1r
.	2A/	1c	.
.	1G	.	[1g
.	.	4B\	.
.	.	4A/	.
=37	=37	=37	=37
!LO:N:vis=1	!	!	!
[y0C	2.c\	2G/	2g/]
.	.	2A/	4f/
.	4d\	.	4e/
.	1e	1G	1g
=38-	=38	=38	=38
0C]yy	2r	2.c\	1c
.	1e	.	.
.	.	4d\	.
.	.	1e	1g
.	4d\	.	.
.	4c\	.	.
=39-	=39	=39	=39
!LO:N:vis=1	!	!	!
[y0E	2B\	2r	1r
.	2c\	1e	.
.	2B\	.	[1g
.	2e\	4d\	.
.	.	4c\	.
=40-	=40	=40	=40
0E]yy	2r	2B\	2g/]
.	1e	2c\	4f/
.	.	.	4e/
.	.	2B\	2.g/
.	4d\	2e\	.
.	4c\	.	4a/
=41	=41	=41	=41
!LO:N:vis=0	!	!	!
[y0E	2B\	2r	2b\
.	2c\	1e	2e/
.	1B	.	[1g
.	.	4d\	.
.	.	4c\	.
=42-	=42	=42	=42
0E_yy	1e	2B\	2g/]
.	.	2c\	4f/
.	.	.	4e/
.	1E	2B\	2.g/
.	.	[2e\	.
.	.	.	4a/
=43-	=43	=43	=43
0E_yy	1.G	2e\]	2.b\
.	.	2E/	.
.	.	.	4a/
.	.	[1G	2b\
.	4F/	.	2cc\
.	4E/	.	.
=44-	=44	=44	=44
0E]yy	2.G/	2G/]	2b\
.	.	4F/	1g
.	4A/	4E/	.
.	2B\	1G	.
.	2c\	.	4f/
.	.	.	4e/
=45	=45	=45	=45
!LO:N:vis=1	!	!	!
[y0D	1d	0A	2.f/
.	.	.	4g/
.	2r	.	4a/
.	.	.	4b-i\
.	[2d\	.	[2a/
=46-	=46	=46	=46
0D]yy	2d\]	0d	4a/]
.	.	.	4g/
.	2B\	.	1g
.	1A	.	.
.	.	.	2f/
=47-	=47	=47	=47
!LO:N:vis=1	!	!	!
[y0E	1G	0B	2.g/
.	.	.	4a/
.	2r	.	4b\
.	.	.	4cc\
.	[2e\	.	[2b\
=48-	=48	=48	=48
0E]yy	2e\]	0e	4b\]
.	.	.	4a/
.	2c\	.	1a
.	1B	.	.
.	.	.	2g#i/
=49	=49	=49	=49
!LO:N:vis=1	!	!	!
[y0F	[0A	0c	[0a
=50-	=50	=50	=50
0F]yy	0A]	0f	0a]
=51-	=51	=51	=51
[0C	1r	1.e	1.g
.	[1c	.	.
.	.	2e\	2g/
=52-	=52	=52	=52
0C_	1c]	1e	1g
.	1c	1e	1g
=53	=53	=53	=53
!LO:N:vis=1	!	!	!
0C_y	1c	2.E/	1.g
.	.	4F/	.
.	1c	2G/	.
.	.	[2A/	4f/
.	.	.	4e/
=54-	=54	=54	=54
0C]yy	1.c	2A/]	2.e/
.	.	2G/	.
.	.	.	4f/
.	.	1E	2g/
.	4B\	.	[2a/
.	4A/	.	.
=55-	=55	=55	=55
!LO:N:vis=1	!	!	!
[y0D	1A	0F	2a/]
.	.	.	4g/
.	.	.	4f/
.	2.d\	.	2b-\
.	.	.	[2a/
.	4c\	.	.
=56-	=56	=56	=56
0D]yy	2A/	0f	2a/]
.	2.B-\	.	4g/
.	.	.	4f/
.	.	.	2b-i\
.	4A/	.	.
.	2F/	.	[2a/
=57	=57	=57	=57
[0Cl	2.c\	0e	2a/]
.	.	.	4g/
.	4B\	.	4f/
.	2G/	.	2e/
.	[2A/	.	[2cc\
=58	=58	=58	=58
0C_	4A/]	1c	4cc\]
.	4G/	.	4b\
.	2E/	.	2g/
.	[1cl	2A/	2.a/
.	.	[2c\	.
.	.	.	4g/
=59	=59	=59	=59
0C_	0c_	4c\]	[0el
.	.	4B\	.
.	.	2G/	.
.	.	1A	.
=60	=60	=60	=60
0C]	0c]	0Gl	0e]
*rscale:1	*	*	*
!!LO:LB:i:g=z
=61||	=61||	=61||	=61||
*>B	*>B	*>B	*>B
!!section: Agnus Dei II
!!!OMD: Agnus Dei II
*M2/1	*M2/1	*M2/1	*M2/1
*met(C|)	*met(C|)	*met(C|)	*met(C|)
!LO:TX:Z=6:t=deorsum	!	!	!
0FF	2.c\	0r	0r
.	4B\	.	.
.	4A/	.	.
.	4G/	.	.
.	[2A/	.	.
=62	=62	=62	=62
1FF	2A/]	0r	0r
.	4G/	.	.
.	4F/	.	.
1GG	1E	.	.
=63	=63	=63	=63
0AA	0r	2.c\	0r
.	.	4B\	.
.	.	4A/	.
.	.	4G/	.
.	.	[2A/	.
=64	=64	=64	=64
0GG	0r	2A/]	0r
.	.	4G/	.
.	.	4F/	.
.	.	1E	.
=65	=65	=65	=65
0FF	1F	1r	2.cc\
.	.	.	4b\
.	[1c	1F	4a/
.	.	.	4g/
.	.	.	[2a/
=66	=66	=66	=66
1r	2c\]	1.c	2a/]
.	4B\	.	4g/
.	4A/	.	4f/
1C	1G	.	1e
.	.	4B\	.
.	.	4A/	.
=67	=67	=67	=67
0D	2F/	2A/	2.f/
.	2B-i\	2.d\	.
.	.	.	4g/
.	2A/	.	2a/
.	.	4c\	.
.	[2d\	4B-i\	[2b-\
.	.	4A/	.
=68	=68	=68	=68
1BB-	4d\]	2G/	4b-\]
.	4c\	.	4a/
.	4B-i\	2d\	4g/
.	4A/	.	4f/
1C	1G	2.c\	1e
.	.	4B-i\	.
=69	=69	=69	=69
[0D	1F	4A/	1.f
.	.	4G/	.
.	.	1B-i	.
.	1B-i	.	.
.	.	4A/	2g/
.	.	4G/	.
=70	=70	=70	=70
1D]	1A	0F	1a
1BB-i	[1d	.	[1b-i
=71	=71	=71	=71
0BB-i	2d\]	0D	2b-\]
.	2c\	.	2a/
.	2B-i\	.	2g/
.	2A/	.	2f/
=72	=72	=72	=72
1C	2G/	1r	2e/
.	2E/	.	2c/
1BB-i	2F/	1D	1d
.	2G/	.	.
=73	=73	=73	=73
1AA	2C/	1E	0c
.	2.c\	.	.
1FF	.	1F	.
.	4B\	.	.
.	2A/	.	.
=74	=74	=74	=74
0GG	4G/	0BB-	0r
.	4F/	.	.
.	1F	.	.
.	2E/	.	.
=75	=75	=75	=75
[0FF	0F	1C	1r
.	.	2D/	2r
.	.	2C/	2c/
=76	=76	=76	=76
0FF_	2r	1F	2d/
.	2C/	.	2c/
.	2D/	2r	1f
.	2C/	2c\	.
=77	=77	=77	=77
0FF]	1F	2d\	2r
.	.	2c\	2c/
.	2r	[1f	2d/
.	2C/	.	2c/
=78	=78	=78	=78
0r	2D/	2f\]	2f/
.	2C/	2e\	2g/
.	2.F/	[1c	1a
.	4G/	.	.
=79	=79	=79	=79
0r	1A	2c\]	2r
.	.	4B\	2c/
.	.	4A/	.
.	2r	2B\	2d/
.	2C/	2c\	2c/
=80	=80	=80	=80
0r	2D/	2F/	2f/
.	2C/	2.c\	2g/
.	2.F/	.	2a/
.	.	4A/	.
.	.	2d\	2b\
.	4G/	.	.
=81	=81	=81	=81
[0F	2.A/	2c\	1cc
.	.	2.A/	.
.	4B\	.	.
.	1c	.	2r
.	.	4B\	.
.	.	[2c\	2c/
=82	=82	=82	=82
1F]	1A	4c\]	2d/
.	.	4B\	.
.	.	4A/	2c/
.	.	4G/	.
1D	[1d	1A	1f
=83	=83	=83	=83
0E	2d\]	0G	1.g
.	4c\	.	.
.	4B\	.	.
.	1c	.	.
.	.	.	2a/
=84	=84	=84	=84
1G	1r	1G	1b-i
2F\	1c	[1A	[1a
2E\	.	.	.
=85	=85	=85	=85
0D	2d\	2A/]	1a]
.	2.f\	2F/	.
.	.	1A	1f
.	4e\	.	.
.	4d\	.	.
.	4c\	.	.
=86	=86	=86	=86
1E	1B	1G	1g
1F	1A	1D	1a
=87	=87	=87	=87
[0G	1G	0d	1.b-i
.	[1d	.	.
.	.	.	4a/
.	.	.	4g/
=88	=88	=88	=88
1G]	2d\]	1B-	1b-i
.	2e\	.	.
1F	2.f\	1c	1a
.	4e\	.	.
=89	=89	=89	=89
1F	2c\	1A	2r
.	2d\	.	2f/
2E\	2e\	2G/	2g/
2D\	2f\	[2d\	[2b-i\
=90	=90	=90	=90
0E	4g\	4d\]	4b-\]
.	4f\	4c\	4a/
.	4e\	4B-i\	1a
.	4d\	4A/	.
.	1e	1B-i	.
.	.	.	2g/
=91	=91	=91	=91
0F	2r	1A	[0a
.	2c\	.	.
.	2d\	[1F	.
.	[2f\	.	.
=92	=92	=92	=92
1r	2f\]	2F/]	0a]
.	2e\	2G/	.
1F	2c\	2A/	.
.	2d\	2B\	.
=93	=93	=93	=93
1F	2.A/	2c\	0r
.	.	2d\	.
.	4B\	.	.
2E\	2c\	2G/	.
[2D\	[2F/	2A/	.
=94	=94	=94	=94
2D\]	2F/]	2B\	0r
2C/	2G/	2.c\	.
1AA	1A	.	.
.	.	4B\	.
.	.	[2A/	.
=95	=95	=95	=95
0BB-i	0D	2A/]	0d
.	.	4G/	.
.	.	4F/	.
.	.	2G/	.
.	.	[2d\	.
=96	=96	=96	=96
0AA	0A	2d\]	[0e
.	.	4c\	.
.	.	4B\	.
.	.	[1c	.
=97	=97	=97	=97
0C	1G	2c\]	0e]
.	.	2B\	.
.	[1c	2A/	.
.	.	2G/	.
=98	=98	=98	=98
0D	2c\]	0F	0f
.	4B\	.	.
.	4A/	.	.
.	2B\	.	.
.	2A/	.	.
=99	=99	=99	=99
0C	[0e	0c	[0g
=100	=100	=100	=100
0E	0e_	2.B\	0g_
.	.	4A/	.
.	.	2B\	.
.	.	[2c\	.
=101	=101	=101	=101
1r	0e]	2c\]	0g]
.	.	4B\	.
.	.	4A/	.
1E	.	2B\	.
.	.	[2c\	.
=102	=102	=102	=102
1F	1.A	4c\]	1c
.	.	4B\	.
.	.	4A/	.
.	.	4G/	.
1D	.	1F	1d
.	2B\	.	.
=103	=103	=103	=103
0C	0c	1G	0e
.	.	[1A	.
=104	=104	=104	=104
1D	0r	1A]	1f
[1E	.	1G	[1g
=105	=105	=105	=105
2E\]	0r	1.c	2g/]
2D\	.	.	2f/
2C/	.	.	2e/
2BB/	.	2d\	2d/
=106	=106	=106	=106
0C	1.c	0e	2c/
.	.	.	2B/
.	.	.	2A/
.	2B\	.	2G/
=107	=107	=107	=107
0D	2A/	0f	1F
.	2G/	.	.
.	2F/	.	[1f
.	2E/	.	.
=108	=108	=108	=108
1D	0D	1F	2f/]
.	.	.	4e/
.	.	.	4d/
1BB-i	.	1G	[1d
=109	=109	=109	=109
0AA	0E	0A	1d]
.	.	.	1c#i
=110	=110	=110	=110
0BB-i	0D	0F	0d
=111	=111	=111	=111
0GG	0B-	0G	1r
.	.	.	[1d
=112	=112	=112	=112
0AA	1.A	0E	2d/]
.	.	.	4c/
.	.	.	4B/
.	.	.	1c
.	2G/	.	.
=113	=113	=113	=113
1BB-i	2F/	1D	1d
.	4E/	.	.
.	4D/	.	.
1AA	1E	[1A	1c
=114	=114	=114	=114
1.D	1D	1A]	1.f
.	1A	1F	.
2C/	.	.	2e/
=115	=115	=115	=115
1BB-i	1B-i	1G	1d
1AA	1c	1A	1c
=116	=116	=116	=116
0GG	1d	0B-i	1r
.	1e	.	1g
=117	=117	=117	=117
[0FF	1f	1A	2.a/
.	.	.	4b\
.	2r	1F	4cc\
.	.	.	4dd\
.	[2F/	.	[2cc\
=118	=118	=118	=118
0FF]	4F/]	2.c\	4cc\]
.	4G/	.	4b\
.	4A/	.	4a/
.	4B\	4B\	4g/
.	2c\	4A/	2a/
.	.	4G/	.
.	2d\	2A/	2f/
=119	=119	=119	=119
0r	2B\	2G/	2g/
.	2.c\	2.F/	2.a/
.	4B\	4E/	4g/
.	[2d\	4D/	[2b-i\
.	.	4C/	.
=120	=120	=120	=120
0r	4d\]	1BB-	4b-\]
.	4c\	.	4a/
.	4B-i\	.	4g/
.	4A/	.	4f/
.	1G	1C	2.e/
.	.	.	4d/
=121	=121	=121	=121
[0FFl	[0Fl	0D	[0fl
=122	=122	=122	=122
0FF]	0F]	0Cl	0f]
!LO:TX:rj:Y=20:t=This mass was apparently conceived	!	!	!
!LO:TX:rj:Y=45:t=with only two Agnus Dei sections.	!	!	!
==	==	==	==
*-	*-	*-	*-
!!!RDF**kern: l=long note in original notation
!!!RDF**kern: i=editorial accidental
!!!ENC: Jesse Rodin; Victoria Chang 2011/04/13
!!!END: 2011/04/13/
!!!EED:	Jesse Rodin
!!!EEV:	2011/09/18/
!!attribution-level@Jos: 1 (secure)
!!!ONB:	Translated from MusicXML and edited on 2011/09/18/ by Craig Sapp
!!muse2ps: T^@{OPR}^u^@{ONM}{. }@{OTL}^C^@{COM}\n@{SCT}^i2I100v85,90,85,150c80Q16
